X:3
%%MIDI gchord c
T:La revanche du triton
C:Bruno Scherrer
%%score 1 2 3
L:1/16
M:3/4
K:Bb
V:1
V:2
V:3 clef=bass
V:1
"Cm9"ABAG AB z c z d z _d- | "GbΔ"_dcB_A B8 | "AbΔ"z4 _AB z _A z GF2- | "BbΔ"F12 |
"Cm9"=ABAG AB z c z d z _d- | "GbΔ"_dcB_A B8 | "AbΔ"z4 G_A z B z cB2- | "EbΔ"B12 |
"Gm"dedc d8 | "GmΔ/Gb"dedc d8 | "Gm7/F"dedc de z d z c c2- | "Gm6/Eb"c12 |
"EΔ"BcB=A B8 | "GbΔ"_AB_A_G _A8 | "AbΔ"_AB_A=G _A6 B=A- | "BbΔ"=A12 |
V:2
[df]3[ce] z [df] [ce]6 | [_df]3[ce] z [_df] [ce]6 | [cf]3[Be] z [cf] [Be]4 [ABd]2- | [ABd]12 |
[df]3[ce] z [df] [ce]6 | [_df]3[ce] z [_df] [ce]6 | [cf]3[Be] z [cf] [Be]4 [GBd]2- | [GBd]12 |
[dB]3[Bg] z [dB] [Bg]6 | [dB]3[A_g] z [dB] [A_g]6 | [dB]3[_Af] z [dB] [_Af]4 [GB=e]2- | [GBe]12 |
[df]3[ce] z [df] [ce]6 | [_df]3[ce] z [_df] [ce]6 | [cf]3[Be] z [cf] [Be]4 [ABd]2- | [ABd]12 |
V:3
C,3G, D3 C,2 G,2 D | _G,,3_D, _A,3 _G,,2 _D,2 _A, | _A,,3E, G,3 _A,,2 E,2 G, | B,,3F, A,8 | 
C,3G, D3 C,2 G,2 D | _G,,3_D, _A,3 _G,,2 _D,2 _A, | _A,,3E, G,3 _A,,2 E,2 G, | E,3G, B,8 |
G,3B, D3 G,2 B,2 D | _G,3B, D3 _G,2 B,2 D | F,3B, D3 F,2 B,2 D | =E,3B, D8 |
E,3G, D3 E2 G,2 D | _G,,3_D, _A,3 _G,,2 _D,2 _A, | _A,,3E, G,3 _A,,2 E,2 G, | B,,3F, A,8 ||

